X: 1
T: Leading Role
M: 4/4
L: 1/8
R: reel
K: Gmaj
~B2AG EDBA|~G2BD EDGA|~B2AG EDGA|BEGE BEGA|
~B2AG EDBA|~G2BD EDGA|~B2AG EDBA|AGBD ~G3A:|
d~G3 dGBd|~e2dB ABGA| BEGE BEGA|BGAG EDD2|
Bded dGBd|~e2dB ABGA|~B2AG EDBA| AGBD ~G3B||
d~G3 dGBd|~e2dB ABGA|BEGE BEGA|BGAG EDD2|
B~d3 dggf|~e2dB ABGA|~B2AG EDBA|AGBD ~G3B||
